X:13225
T:Planxty Irwin
% Nottingham Music Database
S:O'Neils 1850 p123
M:3/4
L:1/4
K:D
A|"D"d2c|"G"Bcd|"A7"A2G|"D"FED|"A7"G2E|"D"FGA|"A"C2D|"A7"E2A|
"D"d2c|"G"Bcd|"A7"A2G|"D"FED|"A7""Em"G2E|"D""Bm"FGA|"A7""Em"D2" ""A7"C|\
"D"D2"A7"A||
"D"d2d|"D"dcd|"Em"e2e|"A7"ecA|"D"f2f|F"A"e2d|"E7"dcB|"A7"ABc|
"D"d2c|"G"Bcd|"A7"A2G|"D"FED|"A7""Em"G2E|"D""Bm"FGA|"A7""Em"D2" ""A7"C|\
"D"D2"A7"A||
